tools/download-figma-icons/icons/outlined-medium/map.svg

<svg width="24" height="24" viewBox="0 0 24 24" fill="none" xmlns="http://www.w3.org/2000/svg">
<path fill-rule="evenodd" clip-rule="evenodd" d="M1.49999 5.09697C1.49999 3.11323 3.11323 1.49999 5.09697 1.49999C7.08071 1.49999 8.69396 3.11323 8.69396 5.09697C8.69396 7.07471 6.42372 9.68995 5.09697 10.9777C3.77023 9.68995 1.49999 7.07471 1.49999 5.09697ZM4.60273 12.5639C4.74373 12.6877 4.92073 12.7499 5.09697 12.7499C5.27322 12.7499 5.45022 12.6877 5.59122 12.5639C5.77872 12.3997 10.1939 8.49446 10.1939 5.09697C10.1939 2.28674 7.90721 0 5.09697 0C2.28674 0 0 2.28674 0 5.09697C0 8.49446 4.41523 12.3997 4.60273 12.5639ZM8.24861 23.9999C8.15336 23.9999 8.05736 23.9819 7.96661 23.9451L0.46815 20.9061C0.185401 20.7914 0.000152043 20.5161 0.000152043 20.2109V11.6879C0.000152043 11.2739 0.3354 10.9379 0.750148 10.9379C1.1649 10.9379 1.50014 11.2739 1.50014 11.6879V19.7054L8.21936 22.4286L16.2893 18.4694C16.4536 18.3899 16.6441 18.3727 16.8203 18.4207L22.5 19.9986V5.08272L16.6853 3.46798L12.5656 5.38347C12.1876 5.55897 11.7436 5.39472 11.5688 5.01897C11.3941 4.64397 11.5568 4.19772 11.9326 4.02298L16.3028 1.99124C16.4641 1.91549 16.6478 1.90124 16.8203 1.94849L23.451 3.79048C23.775 3.88048 24 4.17597 24 4.51272V20.9849C24 21.2189 23.8898 21.4401 23.7038 21.5819C23.5155 21.7236 23.2725 21.7686 23.049 21.7071L16.6936 19.9424L8.57861 23.9234C8.47511 23.9744 8.36186 23.9999 8.24861 23.9999ZM6.41164 5.09688C6.41164 5.82288 5.82289 6.41163 5.0969 6.41163C4.3709 6.41163 3.78215 5.82288 3.78215 5.09688C3.78215 4.37089 4.3709 3.78214 5.0969 3.78214C5.82289 3.78214 6.41164 4.37089 6.41164 5.09688Z" fill="black"/>
</svg>

<svg width="24" height="24" viewBox="0 0 24 24" fill="none" xmlns="http://www.w3.org/2000/svg"><path fill-rule="evenodd" clip-rule="evenodd" d="M1.5 5.097A3.6 3.6 0 0 1 5.097 1.5a3.6 3.6 0 0 1 3.597 3.597c0 1.978-2.27 4.593-3.597 5.88C3.77 9.69 1.5 7.076 1.5 5.098Zm3.103 7.467a.749.749 0 0 0 .988 0c.188-.164 4.603-4.07 4.603-7.467A5.103 5.103 0 0 0 5.097 0 5.103 5.103 0 0 0 0 5.097c0 3.397 4.415 7.303 4.603 7.467ZM8.249 24a.75.75 0 0 1-.282-.055L.468 20.906A.75.75 0 0 1 0 20.211v-8.523a.75.75 0 1 1 1.5 0v8.017l6.72 2.724 8.07-3.96a.764.764 0 0 1 .53-.048l5.68 1.578V5.083l-5.815-1.615-4.12 1.915a.75.75 0 1 1-.632-1.36l4.37-2.032a.75.75 0 0 1 .517-.043l6.631 1.842a.75.75 0 0 1 .549.723v16.472a.752.752 0 0 1-.951.722l-6.355-1.765-8.115 3.981a.747.747 0 0 1-.33.077ZM6.412 5.097a1.315 1.315 0 1 1-2.63 0 1.315 1.315 0 0 1 2.63 0Z" fill="currentColor"/></svg>
